X: 689
T: Evlerinin Önü Yoldur Yolaktır
C: Faruk Kaleli
O: Turkey
F: http://compmusic.upf.edu/node/140
N: gerdaniye--turku--sofyan--evlerinin_onu--urfa
N: makam= gerdaniye
N: form= turku
N: usul= sofyan = 4/4
M: 4/4
L: 1/16
K: C _2/4B ^3/4f  
Q: 1/4=96
%%MIDI tuningsystem comma53
e2e2 geed d3/2e/d2 e3d  | z2de d2e2 cdc2 d4  | \
w:  ARANAĞME  |   | 
c2d2 ed2B cdc2 d4  | 
w:   | 
z2cd c2dB BcB2 c4  | B2c2 dccB BcB2 cBc2  | 
w:   |   | 
z2Bc B2cA AA3 A4  | B2c2 dccB BcB2 cBc2  | 
w:   |   | 
z2Bc B2cA AA3 A4  | d2d2 gfg2 fgf2 gfg2  | \
w:   |  Ev le ri nin  *  ö *  *  nü   | 
z2fg f2ge e=fe2 efd2  | 
w:  yol *  *  dur  *  yo lak *  tır    | 
d2d2 gfg2 fgf2 gfg2  | z2fg f2ge e=fe2 efd2  | 
w:  Ev le ri nin  *  ö *  *  nü   |  yol *  *  dur  *  yo lak *  tır    | 
e2e2 geed d3/2e/d2 e3d  | z2de d2e2 cdc2 d4  | \
w:  Ba şı mız *  da  *  dö *  *  nen   |  dek *  *  tir  do lap *  tır    | 
c2d2 eddB cdc2 d4  | 
w:  El le rin  *  hû *  riy *  *  se   | 
z2cd c2d2 BcB2 c4  | B2c2 dccB BcA2 cBc2  | 
w:  be *  *  nim  me lek *  tir    |  Ben  yâ rı ma  *  *  ne *  *  ler   | 
z2Bc B2cA AA3 A4  | e2e2 geed d3/2e/d2 e3d  | \
w:  ne *  *  ler  *  a la yım    |  Ben  yâ rı ma  *  *  ne *  *  ler   | 
z2de d2e2 cdc2 d4  | 
w:  ne *  *  ler  a la *  yım    | 
c2d2 ed2B cdc2 d4  | z2cd c2dB BcB2 c4  | \
w:  Ben  yâ rı ma  *  i *  *  pek   |  men *  *  dil  *  a la *  yım    | 
B2c2 dccB BcB2 cBc2  | 
w:  Da rıl mış *  sa  *  gi *  *  dip   | 
z2Bc B2cA AA3 A4  | B2c2 dccB BcB2 cBc2  | 
w:  hat *  *  rın  *  so ra yım    |  Ay rı lı ğa  *  *  yok *  *  tur   | 
z2Bc B2cA AA3 A4  | e2e2 geed d3/2e/d2 e3d  | \
w:  be *  *  nim  *  da ya ğım    |  ARANAĞME  | 
z2de d2e2 cdc2 d4  | 
w:   | 
c2d2 ed2B cdc2 d4  | z2cd c2dB BcB2 c4  | \
w:   |   | 
B2c2 dccB BcB2 cBc2  | 
w:   | 
z2Bc B2cA AA3 A4  | B2c2 dccB BcB2 cBc2  | 
w:   |   | 
z2Bc B2cA AA3 A4  | d2d2 gfg2 fgf2 gfg2  | \
w:   |  Ev le ri nin  *  ö *  *  nü   | 
z2fg f2ge e=fe2 efd2  | 
w:  yol *  *  dur  *  yo lak *  tır    | 
d2d2 gfg2 fgf2 gfg2  | z2fg f2ge e=fe2 efd2  | 
w:  Ev le ri nin  *  ö *  *  nü   |  yol *  *  dur  *  yo lak *  tır    | 
e2e2 geed d3/2e/d2 e3d  | z2de d2e2 cdc2 d4  | \
w:  Ba şı mız *  da  *  dö *  *  nen   |  dek *  *  tir  do lap *  tır    | 
c2d2 eddB cdc2 d4  | 
w:  El le rin  *  hû *  riy *  *  se   | 
z2cd c2d2 BcB2 c4  | B2c2 dccB BcA2 cBc2  | 
w:  be *  *  nim  me lek *  tir    |  Ben  yâ rı ma  *  *  ne *  *  ler   | 
z2Bc B2cA AA3 A4  | e2e2 geed d3/2e/d2 e3d  | \
w:  ne *  *  ler  *  a la yım    |  Ben  yâ rı ma  *  *  ne *  *  ler   | 
z2de d2e2 cdc2 d4  | 
w:  ne *  *  ler  a la *  yım    | 
c2d2 ed2B cdc2 d4  | z2cd c2dB BcB2 c4  | \
w:  Ben  yâ rı ma  *  i *  *  pek   |  men *  *  dil  *  a la *  yım    | 
B2c2 dccB BcB2 cBc2  | 
w:  Da rıl mış *  sa  *  gi *  *  dip   | 
z2Bc B2cA AA3 A4  | B2c2 dccB BcB2 cBc2  | 
w:  hat *  *  rın  *  so ra yım    |  Ay rı lı ğa  *  *  yok *  *  tur   | 
z2Bc B2cA AA3 A4  | |


